rospo-dark/16x16/actions/kdenlive-zindex-down.svg

<svg height="16" viewBox="0 0 16 16" width="16" xmlns="http://www.w3.org/2000/svg"><path d="m8 0c-1.1046 0-2 .89543-2 2s .8954 2 2 2 2-.8954 2-2-.8954-2-2-2zm-1 4.78125-.03125 7.46875-3.625-3.65625-1.375 1.40625 6.03125 6 6-6-1.375-1.40625-3.65625 3.65625.03125-7.46875z" fill="#d3dae3"/></svg>

<?xml version="1.0" encoding="UTF-8" standalone="no"?>
<svg xmlns="http://www.w3.org/2000/svg" width="22" height="22" viewBox="0 0 22 22">
 <defs>
  <style type="text/css" id="current-color-scheme">
   .ColorScheme-Text { color:#d3dae3; } .ColorScheme-Highlight { color:#5294e2; }
  </style>
 </defs>
 <path style="fill:currentColor;opacity:1" class="ColorScheme-Text" transform="translate(3 3)" d="M 8 0 C 6.8954 0 6 0.89543 6 2 C 6 3.10457 6.8954 4 8 4 C 9.1046 4 10 3.1046 10 2 C 10 0.8954 9.1046 0 8 0 z M 7 4.78125 L 6.96875 12.25 L 3.34375 8.59375 L 1.96875 10 L 8 16 L 14 10 L 12.625 8.59375 L 8.96875 12.25 L 9 4.78125 L 7 4.78125 z"/>
</svg>
